governance/ui/public/councils/gc.svg

<svg width="80" height="80" viewBox="0 0 80 80" fill="none" xmlns="http://www.w3.org/2000/svg">
<path fill-rule="evenodd" clip-rule="evenodd" d="M64.3848 59.9588C65.6444 58.4407 66.7611 56.8072 67.7195 55.0787L67.7455 55.0318L67.7694 54.9838C67.91 54.7025 68.0179 54.4082 68.0924 54.1066C68.1552 53.9826 68.2172 53.8582 68.2784 53.7332L68.2877 53.7141C70.3399 49.4338 71.4036 44.7469 71.4001 40.0001C71.4042 35.2702 70.3409 30.6003 68.2893 26.3385C66.2374 22.076 63.2499 18.3316 59.5494 15.3845C55.849 12.4373 51.531 10.3634 46.9175 9.31737C42.304 8.2713 37.5138 8.28005 32.9041 9.34296C28.2944 10.4059 23.9841 12.4955 20.2944 15.4562C16.6048 18.4168 13.631 22.1721 11.5946 26.442C9.55832 30.712 8.51203 35.3865 8.53378 40.1171C8.55552 44.8477 9.64474 49.5123 11.7202 53.7634L11.7276 53.7783C12.8128 55.9641 14.155 58.0088 15.7234 59.8699L17.5093 61.9112C20.4349 64.9141 23.9322 67.3007 27.7949 68.9302C31.6576 70.5598 35.8076 71.3993 39.9999 71.3993C40.0431 71.3993 40.0863 71.3992 40.1295 71.3991H40.1331C44.3255 71.3991 48.4754 70.5595 52.3381 68.93C56.1996 67.3009 59.6959 64.9154 62.6209 61.9139C63.2194 61.3034 63.7924 60.6697 64.3387 60.0143L64.3892 59.9624L64.3848 59.9588ZM45.8119 14.1936C41.9322 13.3139 37.904 13.3213 34.0276 14.2151C30.1511 15.109 26.5264 16.8662 23.4237 19.3559C20.3209 21.8456 17.8201 25.0036 16.1077 28.5943C14.3953 32.185 13.5154 36.116 13.5337 40.0941C13.5472 43.0229 14.0472 45.9218 15.0066 48.6738L23.589 41.6935L26.7439 45.5725L17.2743 53.2744C17.9742 54.4607 18.7641 55.5906 19.6368 56.6541L37.3284 42.1163C38.0746 41.4842 39.0212 41.1369 39.9999 41.1369C40.9787 41.1369 41.9253 41.4842 42.6715 42.1163L60.4442 56.7207C61.3546 55.6168 62.1755 54.4389 62.8977 53.1979L53.5223 45.5725L56.6772 41.6935L65.0231 48.4819C65.9351 45.7552 66.4024 42.8917 66.4001 40.0019V39.9975C66.4039 36.0194 65.5096 32.0917 63.7841 28.5072C62.0586 24.9228 59.5463 21.774 56.4345 19.2956C53.3227 16.8173 49.6916 15.0733 45.8119 14.1936ZM56.8942 60.2751L39.9999 46.3926L23.1665 60.2252C23.7971 60.7541 24.4517 61.253 25.128 61.7202C27.1704 63.1172 29.406 64.2254 31.7723 65.0058C35.7905 66.331 40.0682 66.6723 44.2458 66.0009C48.4234 65.3295 52.3787 63.6651 55.7794 61.1475C56.1593 60.8663 56.5309 60.5754 56.8942 60.2751Z" fill="white"/>
<path d="M34.202 25.9101C34.411 25.9101 34.5866 25.9919 34.7292 26.1551L36.3534 28.1421L38.4902 25.5357L37.3933 24.1967C36.567 23.2658 35.5839 22.7999 34.4443 22.7999H29.9284C29.8904 22.7999 29.8593 22.8119 29.836 22.836C29.8122 22.86 29.8003 22.8864 29.8003 22.915V25.795C29.8003 25.8237 29.8122 25.8505 29.836 25.8741C29.8593 25.8981 29.8904 25.9101 29.9284 25.9101H34.202Z" fill="white"/>
<path d="M45.5848 22.7999C44.4356 22.7999 43.4479 23.2607 42.6217 24.1824L37.8204 30.0571L34.7292 33.8296C34.577 33.9932 34.4014 34.0746 34.202 34.0746H29.9284C29.8904 34.0746 29.8616 34.0866 29.8429 34.1106C29.8237 34.1347 29.8145 34.161 29.8145 34.1897V37.0697C29.8145 37.1084 29.8237 37.1395 29.8429 37.1635C29.8616 37.1875 29.8904 37.1995 29.9284 37.1995H34.4302C35.5793 37.1995 36.567 36.7341 37.3933 35.8027L40.0147 32.6061L42.6358 35.8027C43.4525 36.7341 44.4356 37.1995 45.5848 37.1995H50.0866C50.1245 37.1995 50.1529 37.1875 50.1721 37.1635C50.1909 37.1398 50.2004 37.1131 50.2004 37.0844V34.2044C50.2004 34.1664 50.1909 34.135 50.1721 34.111C50.1529 34.087 50.1245 34.075 50.0866 34.075H45.8129C45.6131 34.075 45.4425 33.9982 45.2999 33.8444L42.1374 29.9854L45.2857 26.1551C45.4283 25.9919 45.6039 25.9101 45.8129 25.9101H50.0866C50.1245 25.9101 50.1529 25.8981 50.1721 25.8741C50.1909 25.8505 50.2004 25.8237 50.2004 25.795V22.915C50.2004 22.8767 50.1909 22.848 50.1721 22.8286C50.1529 22.8096 50.1245 22.7999 50.0866 22.7999H45.5848Z" fill="white"/>
</svg>

<svg width="80" height="80" fill="none" viewBox="0 0 80 80" xmlns="http://www.w3.org/2000/svg">
  <path fill="#fff" fill-rule="evenodd" d="M64.385 59.959a32 32 0 0 0 3.334-4.88l.027-.047.023-.048q.212-.424.323-.877.095-.186.186-.374l.01-.019A31.7 31.7 0 0 0 71.4 40a31.434 31.434 0 1 0-59.68 13.763l.008.015a30.5 30.5 0 0 0 3.995 6.092l1.786 2.041A31.4 31.4 0 0 0 40 71.4h.134a31.4 31.4 0 0 0 22.488-9.485 32 32 0 0 0 1.718-1.9l.05-.052zM45.812 14.194a26.433 26.433 0 0 0-30.805 34.48l8.582-6.98 3.155 3.878-9.47 7.702c.7 1.187 1.49 2.317 2.363 3.38l17.691-14.538a4.13 4.13 0 0 1 5.343 0l17.773 14.605a26.4 26.4 0 0 0 2.454-3.523l-9.376-7.626 3.155-3.879 8.346 6.789a26.7 26.7 0 0 0 1.377-8.48v-.005a26.43 26.43 0 0 0-20.588-25.803m11.082 46.081L40 46.393 23.167 60.225q.946.795 1.961 1.495a26.43 26.43 0 0 0 31.766-1.445" clip-rule="evenodd"/>
  <path fill="#fff" d="M34.202 25.91q.314 0 .527.245l1.624 1.987 2.137-2.606-1.097-1.34q-1.24-1.396-2.949-1.396h-4.516a.12.12 0 0 0-.092.036.1.1 0 0 0-.036.079v2.88a.11.11 0 0 0 .036.08.12.12 0 0 0 .092.035zm11.383-3.11q-1.724 0-2.963 1.382l-4.802 5.875-3.09 3.773a.7.7 0 0 1-.528.245h-4.274q-.057 0-.085.036a.12.12 0 0 0-.029.079v2.88q0 .058.029.093.028.037.085.037h4.502q1.725 0 2.963-1.397l2.622-3.197 2.62 3.197q1.226 1.397 2.95 1.397h4.502q.056 0 .085-.037a.13.13 0 0 0 .028-.079v-2.88q0-.057-.028-.093-.029-.036-.085-.036h-4.274q-.3 0-.513-.23l-3.163-3.86 3.149-3.83a.67.67 0 0 1 .527-.245h4.274q.056 0 .085-.036a.13.13 0 0 0 .028-.079v-2.88q0-.057-.028-.086-.029-.03-.085-.03z"/>
</svg>
